src/icon/animals/sheep.svg

<svg enable-background="new 0 0 24 24" viewBox="0 0 24 24" xmlns="http://www.w3.org/2000/svg"><circle cx="9" cy="13" r="1"/><circle cx="15" cy="13" r="1"/><path d="m12 18c1.1 0 2-.9 2-2h-4c0 1.1.9 2 2 2z"/><path d="m19.9 8.1c0-.1.1-.1.1-.2.1.1.3.1.5.1.8 0 1.5-.7 1.5-1.5s-.7-1.5-1.5-1.5c-.2 0-.4 0-.6.1-.1-.6-.7-1.1-1.4-1.1-.2 0-.5.1-.7.2-.3-.7-1-1.2-1.8-1.2-.5 0-1 .2-1.4.6-.5-1-1.5-1.6-2.6-1.6s-2.1.6-2.6 1.6c-.4-.4-.9-.6-1.4-.6-.8 0-1.5.5-1.8 1.2-.2-.1-.5-.2-.7-.2-.7 0-1.3.5-1.4 1.1-.2-.1-.4-.1-.6-.1-.8 0-1.5.7-1.5 1.5s.7 1.5 1.5 1.5c.2 0 .4 0 .6-.1v.2c-1.4.6-2.2 2.1-2.1 3.9.7.1 1.4 0 2-.3v3.3c0 1.6.8 3 2.1 3.9l3.2 2.2c.8.6 1.7.9 2.7.9s1.9-.3 2.7-.8l3.2-2.2c1.3-.9 2.1-2.4 2.1-3.9v-3.3c.6.2 1.2.4 2 .3.1-1.9-.7-3.4-2.1-4zm-1.9 6.9c0 .9-.4 1.8-1.2 2.3l-3.2 2.2c-.9.6-2.2.6-3.1 0l-3.2-2.2c-.8-.5-1.3-1.4-1.3-2.3v-4.3c0-.6.1-1.1.4-1.6.3.6.9.9 1.6.9.5 0 1-.2 1.4-.6.5 1 1.5 1.6 2.6 1.6s2.1-.6 2.6-1.6c.4.4.9.6 1.4.6.7 0 1.3-.3 1.6-.9.2.5.4 1 .4 1.6z"/></svg>

<?xml version="1.0" encoding="utf-8"?>
<!-- Generator: Adobe Illustrator 18.0.0, SVG Export Plug-In . SVG Version: 6.00 Build 0)  -->
<!DOCTYPE svg PUBLIC "-//W3C//DTD SVG 1.1//EN" "http://www.w3.org/Graphics/SVG/1.1/DTD/svg11.dtd">
<svg version="1.1" id="Layer_1" xmlns="http://www.w3.org/2000/svg" xmlns:xlink="http://www.w3.org/1999/xlink" x="0px" y="0px"
	 viewBox="0 0 24 24" enable-background="new 0 0 24 24" xml:space="preserve">
<g>
	<circle cx="9" cy="13" r="1"/>
	<circle cx="15" cy="13" r="1"/>
	<path d="M12,18c1.1,0,2-0.9,2-2h-4C10,17.1,10.9,18,12,18z"/>
	<path d="M19.9,8.1c0-0.1,0.1-0.1,0.1-0.2C20.1,8,20.3,8,20.5,8C21.3,8,22,7.3,22,6.5C22,5.7,21.3,5,20.5,5c-0.2,0-0.4,0-0.6,0.1
		C19.8,4.5,19.2,4,18.5,4c-0.2,0-0.5,0.1-0.7,0.2C17.5,3.5,16.8,3,16,3c-0.5,0-1,0.2-1.4,0.6C14.1,2.6,13.1,2,12,2
		c-1.1,0-2.1,0.6-2.6,1.6C9,3.2,8.5,3,8,3C7.2,3,6.5,3.5,6.2,4.2C6,4.1,5.7,4,5.5,4C4.8,4,4.2,4.5,4.1,5.1C3.9,5,3.7,5,3.5,5
		C2.7,5,2,5.7,2,6.5C2,7.3,2.7,8,3.5,8c0.2,0,0.4,0,0.6-0.1C4.1,8,4.1,8,4.1,8.1C2.7,8.7,1.9,10.2,2,12c0.7,0.1,1.4,0,2-0.3V15
		c0,1.6,0.8,3,2.1,3.9l3.2,2.2C10.1,21.7,11,22,12,22c1,0,1.9-0.3,2.7-0.8l3.2-2.2c1.3-0.9,2.1-2.4,2.1-3.9v-3.3
		c0.6,0.2,1.2,0.4,2,0.3C22.1,10.2,21.3,8.7,19.9,8.1z M18,15c0,0.9-0.4,1.8-1.2,2.3l-3.2,2.2c-0.9,0.6-2.2,0.6-3.1,0l-3.2-2.2
		C6.5,16.8,6,15.9,6,15v-4.3c0-0.6,0.1-1.1,0.4-1.6C6.7,9.7,7.3,10,8,10c0.5,0,1-0.2,1.4-0.6C9.9,10.4,10.9,11,12,11
		c1.1,0,2.1-0.6,2.6-1.6C15,9.8,15.5,10,16,10c0.7,0,1.3-0.3,1.6-0.9c0.2,0.5,0.4,1,0.4,1.6V15z"/>
</g>
</svg>
